icons/icon-ice-cream.svg

<svg viewBox="0 0 40 40" fill="none" xmlns="http://www.w3.org/2000/svg">
<g id="icon">
<path id="Vector 185" d="M17.0455 28.7237H20H22.7273M17.0455 28.7237V28.7237C13.1544 28.7237 10 25.5693 10 21.6782V10.3864C10 6.30699 13.307 3 17.3864 3H20.7975C22.993 3 24.7727 4.77977 24.7727 6.97522V7.20583C24.7727 8.82508 25.8352 10.2525 27.3864 10.7171V10.7171C28.9375 11.1817 30 12.6091 30 14.2284V21.451C30 25.4676 26.7439 28.7237 22.7273 28.7237V28.7237M17.0455 28.7237V34.1591C17.0455 35.7281 18.3174 37 19.8864 37V37C21.4554 37 22.7273 35.7281 22.7273 34.1591V28.7237" stroke='currentColor' stroke-opacity="0.3" stroke-width="2.5"/>
</g>
</svg>

<svg xmlns="http://www.w3.org/2000/svg" fill="none" viewBox="0 0 40 40"><path stroke="currentColor" stroke-opacity=".3" stroke-width="2.5" d="M17.046 28.724h5.681m-5.681 0A7.046 7.046 0 0 1 10 21.678V10.386A7.386 7.386 0 0 1 17.386 3h3.412a3.975 3.975 0 0 1 3.975 3.975v.23a3.665 3.665 0 0 0 2.613 3.512A3.665 3.665 0 0 1 30 14.228v7.223a7.273 7.273 0 0 1-7.273 7.273m-5.681 0v5.435a2.84 2.84 0 1 0 5.682 0v-5.435"/></svg>
